X:1
T:Go Work, for the Harvest Is Near
T:Go Work, for the Harvest Is Near
T:William Warren Bentley
T:Mary Elizabeth Harper Kail, 1871
T:Public Domain Courtesy of the Cyber Hymnal™
C:William Warren Bentley
Z:Public Domain
Z:Courtesy of the Cyber Hymnal™
%%score ( 1 2 ) ( 3 4 )
L:1/8
Q:1/4=90
M:6/8
K:D
V:1 treble 
V:2 treble 
V:3 bass 
V:4 bass 
V:1
 (D/E/) | [DF][DF][DF] [DF][CE]D | [CA]3- [CA]2 ([EG]/F/) | [CE][CE][DF] [EG][FA][EG] | %4
w: 1.~Go *|work, for the har- vest is|near, * Go *|work, for the lab- orers are|
w: 2.~The *|poor and the need- y may|come, * The *|lame, and the halt and the|
w: 3.~Bright *|beau- ti- ful palms we shall|bear, * With *|loved ones who’ve passed on be-|
 [DF]3- [DF]2 ([DF]/[EG]/) | [FA][FA][FA] [FA][EG][DF] | [DB][GB][Ac] !fermata![Ad]2 [Ac]/[GB]/ | %7
w: few; * Soon *|Je- sus our mas- ter in|joy will ap- pear, With His|
w: blind, * And *|all who are seek- ing a|heav- en- ly home, Th- e|
w: fore; * And *|crowns of re- joic- ing we|ev- er shall wear, On the|
 [FA][Fd][Fd] [Ec][DB][Ec] | [Fd]3- [Fd]2 |:"^Refrain" [FA]/[FA]/ | [GB]3- [GB]2 [Bd]/[GB]/ | %11
w: fol- low- ers faith- ful and|true. *|We shall|rest, * we shall|
w: pearl of sal- va- tion may|find. *|~ ~|~ * ~ ~|
w: beau- ti- ful, beau- ti- ful|shore. *|||
 [FA]3- [FA]2 [EG]/[DF]/ |1 [CE][CE][DF] [EG][FA][GB] | [F-A]3 [DF]2 :|2 %14
w: rest, * We shall|rest on that beau- ti- ful|shore *|
w: ~ * ~ ~|~ ~ ~ ~ ~ ~|~ rest|
w: |||
 [CE][CE][DF] [EG][DF][CE] || (D3- D2) |] %16
w: ||
w: on that beau- ti- ful shore||
w: ||
V:2
 x | x5 D | x6 | x6 | x6 | x6 | x6 | x6 | x5 |: x | x6 | x6 |1 x6 | x5 :|2 x6 || D3- D2 |] %16
V:3
 (F,/G,/) | [D,A,][D,A,][D,A,] [D,A,][D,G,][D,F,] | [A,,E,]3- [A,,E,]2 ([A,,A,]/[A,,A,]/) | %3
w: ~ *|~ ~ ~ ~ ~ ~|~ * ~ *|
 [A,,A,][A,,A,][A,,A,] [A,,A,][A,,A,][A,,A,] | [D,A,]3- [D,A,]2 ([D,A,]/[D,A,]/) | %5
w: ~ ~ ~ ~ ~ ~|~ * ~ *|
 [D,D][D,D][D,D] [D,D][D,A,][D,D] | [G,D][G,D][G,E] !fermata![F,D]2 [G,D]/[G,D]/ | %7
w: ~ ~ ~ ~ ~ ~|~ ~ ~ ~ ~ ~|
 [A,D]A,A, [A,,A,][A,,A,][A,,A,] | [D,A,]3- [D,A,]2 |: z | z2 [A,,G,] [A,,G,] z2 | %11
w: ~ ~ ~ ~ ~ ~|~ *||shall rest,|
 z2 [D,A,] [D,A,]2 [C,A,]/[D,A,]/ |1 [A,,A,][A,,A,][A,,A,] [A,,A,][A,,A,][A,,A,] | %13
w: shall rest, * *||
 [D,A,]3- [D,A,]2 :|2 [A,,A,][A,,A,][A,,A,] [A,,A,][A,,A,][A,,A,] || [D,F,]3- [D,F,]2 |] %16
w: |||
V:4
 D, | x6 | x6 | x6 | x6 | x6 | x6 | x A,A, x3 | x5 |: x | x6 | x6 |1 x6 | x5 :|2 x6 || x5 |] %16

